X:1
T:Lolly Toodum
M:4/4
L:1/8
K:C
 z4 z2 z G| CC CE G G2 E| GG AG E2 ED| C2 C2 E2 G2| DF ED C3 G| cc cG c e2 d|\
 c3/2 d/2 cA c3 A| G3/2 G/2 GA c c2 A| GG AG E2 ED| C2 C2 E2 G2| DF ED C3 z|\
